X: 17834
T: Hopkinson's Favourite
R: jig
M: 6/8
K: Dminor
dfd f2 d|A2 F F2 A|dfd f2 f|g2 f efe|
dfd f2 d|A2 F F2 A|d2 a agf|gaf e3:|
|:d2 a agf|gab a2 f|d2 a agf|gaf e2 d|
d2 a agf|gab a2 a|bag agf|gaf e3:|

